flaticon/seo-and-analytics/analytics-5.svg

<svg xmlns="http://www.w3.org/2000/svg" width="32" height="32" viewBox="0 0 24 24">
    <path d="M 24 6.855469 L 24 3.644531 C 24 1.628906 22.371094 0 20.398438 0 L 3.644531 0 C 1.628906 0 0 1.628906 0 3.644531 L 0 20.355469 C 0 22.371094 1.628906 24 3.644531 24 L 20.355469 24 C 22.371094 24 24 22.371094 24 20.398438 Z M 3.644531 0.855469 L 20.355469 0.855469 C 21.898438 0.855469 23.144531 2.101562 23.1875 3.644531 L 23.1875 6.6875 L 20.441406 14.101562 L 17.566406 10.429688 C 17.570312 10.382812 17.570312 10.335938 17.570312 10.285156 C 17.570312 9.085938 16.628906 8.144531 15.429688 8.144531 C 14.230469 8.144531 13.285156 9.085938 13.285156 10.285156 C 13.285156 10.574219 13.339844 10.84375 13.4375 11.09375 L 11.058594 15.171875 L 8.039062 12.667969 C 8.105469 12.460938 8.144531 12.234375 8.144531 12 C 8.144531 10.800781 7.199219 9.855469 6 9.855469 C 4.800781 9.855469 3.855469 10.800781 3.855469 12 C 3.855469 12.339844 3.933594 12.660156 4.070312 12.941406 L 0.855469 16.121094 L 0.855469 3.644531 C 0.855469 2.101562 2.101562 0.855469 3.644531 0.855469 Z M 16.144531 11.363281 C 15.957031 11.46875 15.738281 11.527344 15.515625 11.527344 C 15.320312 11.527344 15.117188 11.515625 14.933594 11.476562 C 14.460938 11.289062 14.144531 10.835938 14.144531 10.285156 C 14.144531 9.558594 14.699219 9 15.429688 9 C 16.15625 9 16.714844 9.558594 16.714844 10.285156 C 16.714844 10.746094 16.492188 11.136719 16.144531 11.363281 Z M 4.714844 12 C 4.714844 11.269531 5.269531 10.714844 6 10.714844 C 6.730469 10.714844 7.285156 11.269531 7.285156 12 C 7.285156 12.71875 6.742188 13.273438 6.023438 13.285156 C 5.601562 13.277344 5.226562 13.066406 4.972656 12.730469 C 4.953125 12.6875 4.914062 12.648438 4.863281 12.617188 C 4.769531 12.4375 4.714844 12.226562 4.714844 12 Z M 3.769531 23.144531 C 2.144531 23.144531 0.855469 21.855469 0.855469 20.230469 L 0.855469 17.3125 L 4.589844 13.625 C 4.964844 13.949219 5.457031 14.144531 6 14.144531 C 6.382812 14.144531 6.738281 14.046875 7.046875 13.878906 C 7.285156 13.761719 7.5 13.605469 7.671875 13.414062 L 10.972656 16.15625 C 11.058594 16.242188 11.1875 16.285156 11.3125 16.242188 C 11.441406 16.199219 11.570312 16.15625 11.613281 16.027344 L 13.996094 11.890625 C 14.375 12.226562 14.875 12.429688 15.429688 12.429688 C 15.894531 12.429688 16.320312 12.285156 16.667969 12.042969 C 16.925781 11.875 17.148438 11.660156 17.3125 11.398438 L 20.269531 15.214844 C 20.355469 15.34375 20.484375 15.429688 20.65625 15.386719 C 20.828125 15.386719 20.957031 15.257812 21 15.128906 L 23.1875 9.257812 L 23.1875 20.230469 C 23.1875 21.855469 21.855469 23.144531 20.273438 23.144531 Z M 3.769531 23.144531"/>
</svg>

<svg xmlns="http://www.w3.org/2000/svg" width="32" height="32" viewBox="0 0 24 24">
    <path d="M24 6.855v-3.21C24 1.629 22.371 0 20.398 0H3.645A3.64 3.64 0 0 0 0 3.645v16.71A3.64 3.64 0 0 0 3.645 24h16.71C22.371 24 24 22.371 24 20.398zm-20.355-6h16.71c1.543 0 2.79 1.247 2.832 2.79v3.042l-2.746 7.415-2.875-3.672c.004-.047.004-.094.004-.145 0-1.2-.941-2.14-2.14-2.14-1.2 0-2.145.94-2.145 2.14 0 .29.055.559.152.809l-2.378 4.078-3.02-2.504c.066-.207.106-.434.106-.668 0-1.2-.946-2.145-2.145-2.145-1.2 0-2.145.946-2.145 2.145 0 .34.079.66.215.941l-3.215 3.18V3.645a2.786 2.786 0 0 1 2.79-2.79zm12.5 10.508a1.29 1.29 0 0 1-.63.164c-.195 0-.398-.011-.581-.05a1.256 1.256 0 0 1-.79-1.192C14.145 9.56 14.7 9 15.43 9c.726 0 1.285.559 1.285 1.285 0 .461-.223.852-.57 1.078zM4.715 12c0-.73.555-1.285 1.285-1.285.73 0 1.285.555 1.285 1.285 0 .719-.543 1.273-1.262 1.285a1.346 1.346 0 0 1-1.05-.555.275.275 0 0 0-.11-.113A1.334 1.334 0 0 1 4.715 12zM3.77 23.145A2.894 2.894 0 0 1 .855 20.23v-2.918l3.735-3.687c.375.324.867.52 1.41.52a2.18 2.18 0 0 0 1.047-.266c.238-.117.453-.274.625-.465l3.3 2.742c.087.086.216.13.34.086.13-.043.258-.086.301-.215l2.383-4.136c.379.336.879.539 1.434.539.465 0 .89-.145 1.238-.387.258-.168.48-.383.645-.645l2.957 3.817c.085.129.214.215.386.172.172 0 .301-.13.344-.258l2.188-5.871V20.23a2.922 2.922 0 0 1-2.915 2.915zm0 0"/>
</svg>
